icons/chills_fever_fill.svg

<svg width="48" height="48" viewBox="0 0 48 48" fill="none" xmlns="http://www.w3.org/2000/svg">
<path d="M26.5 10.5C26.5 12.9853 24.4853 15 22 15C19.5147 15 17.5 12.9853 17.5 10.5C17.5 8.01472 19.5147 6 22 6C24.4853 6 26.5 8.01472 26.5 10.5Z" fill="black"/>
<path d="M14.1671 17.3509C14.438 16.5613 15.1697 16.0251 16 16.0009L16.0588 16H27.9412L28 16.0009C28.8303 16.0251 29.562 16.5613 29.8329 17.3509L31.8917 23.3509C32.163 24.1416 31.9105 24.988 31.3148 25.5077L31.1838 25.5514C30.7875 25.6835 30.2322 25.9276 29.6674 26.1758L29.5199 26.2407C29.0403 26.4512 28.534 26.6716 28.0367 26.8686L28 26.8831C27.8431 26.9449 27.6871 27.0043 27.5333 27.0603C26.8611 27.3047 26.3186 27.4486 25.9551 27.4706C25.9274 27.4723 25.9028 27.4731 25.8811 27.4733C25.6764 26.8104 25.5316 26.0799 25.6162 25.4447C25.6609 25.1099 25.7664 24.8261 25.9425 24.5897C26.1162 24.3567 26.3963 24.1186 26.8714 23.9285L27.7999 23.5571L27.0571 21.7002L26.1286 22.0716C25.3537 22.3815 24.7588 22.831 24.3388 23.3948C23.9211 23.9553 23.7142 24.5777 23.6338 25.1804C23.4775 26.3522 23.79 27.5322 24.0513 28.3163C24.2113 28.7963 24.5529 29.1289 24.9687 29.3065C25.3435 29.4665 25.7418 29.4872 26.0761 29.467C26.6759 29.4306 27.3581 29.2406 28 29.017L28 40C28 41.0616 27.1706 41.9382 26.1106 41.9969C25.0506 42.0556 24.1295 41.276 24.0122 40.2209L23.0122 31.2209C23.004 31.1471 23 31.0734 23 31H21C21 31.0734 20.996 31.1471 20.9878 31.2209L19.9878 40.2209C19.8705 41.276 18.9494 42.0556 17.8894 41.9969C16.8294 41.9382 16 41.0616 16 40L16 29.0071C16.7784 29.2397 17.5887 29.4322 18.2769 29.4675C18.6423 29.4862 19.0586 29.4664 19.4418 29.325C19.8591 29.171 20.2692 28.8549 20.4487 28.3163C20.7432 27.4329 20.9041 26.2281 20.5913 25.0549C20.2652 23.8323 19.433 22.6962 17.8714 22.0716L16.9429 21.7002L16.2002 23.5571L17.1286 23.9285C18.067 24.3039 18.4848 24.9178 18.6588 25.5702C18.8249 26.1931 18.7734 26.8897 18.616 27.4695C18.5584 27.4737 18.4807 27.4753 18.3794 27.4701C17.8988 27.4455 17.215 27.2892 16.4191 27.0443C16.2804 27.0016 16.1405 26.9569 16 26.9108V26.8823L13.3 25.8735C12.285 25.4943 11.7566 24.3757 12.1083 23.3509L14.1671 17.3509Z" fill="black"/>
<path d="M11 18C10.0698 18 9.25903 18.5053 8.72146 19.0429C8.20169 19.5627 7.71429 20.3384 7.71429 21.1429C7.71429 21.6834 7.97834 22.114 8.18214 22.3857C8.38619 22.6578 8.64375 22.9152 8.84228 23.1136L8.86432 23.1357C9.0146 23.286 9.13514 23.4077 9.23129 23.5153C9.0571 23.6014 8.85102 23.6904 8.60682 23.7959L8.60563 23.7964L8.60446 23.7969C8.51293 23.8364 8.41605 23.8783 8.31347 23.9231C7.88962 24.1086 7.36699 24.3475 6.94654 24.654C6.54617 24.946 6 25.4739 6 26.2857C6 26.9559 6.31691 27.4446 6.6732 27.7786C6.97773 28.0641 7.35622 28.2766 7.61518 28.422L7.6526 28.443C7.96517 28.6188 8.13561 28.7211 8.24463 28.8233C8.26611 28.8434 8.27871 28.8579 8.28562 28.8668C8.28248 29.0267 8.19783 29.1737 7.72146 29.65L7.66346 29.7077C7.27502 30.093 6.57143 30.7908 6.57143 31.8571C6.57143 33.0263 7.42843 33.8241 8.12065 34.258C8.83825 34.7078 9.7344 35 10.4286 35H11.4286V33H10.4286C10.1942 33 9.66175 32.8636 9.18292 32.5634C8.67871 32.2474 8.57143 31.9737 8.57143 31.8571C8.57143 31.6933 8.64977 31.5502 9.13568 31.0643L9.19368 31.0066C9.58213 30.6213 10.2857 29.9235 10.2857 28.8571C10.2857 28.187 9.9688 27.6982 9.61251 27.3642C9.30798 27.0787 8.92948 26.8662 8.67053 26.7209L8.63312 26.6999C8.32923 26.5289 8.15968 26.4275 8.05031 26.3281C8.07023 26.3114 8.09478 26.292 8.12489 26.2701C8.3473 26.1079 8.6818 25.945 9.1151 25.7554C9.18736 25.7238 9.26393 25.6909 9.34313 25.6568C9.6847 25.5097 10.0755 25.3415 10.3831 25.1685C10.5764 25.0597 10.8061 24.9125 10.9976 24.7158C11.191 24.5173 11.4286 24.18 11.4286 23.7143C11.4286 23.1737 11.1645 22.7432 10.9607 22.4714C10.7567 22.1994 10.4991 21.9419 10.3006 21.7435L10.2785 21.7215C10.0512 21.4941 9.89188 21.332 9.78214 21.1857C9.75302 21.1469 9.73416 21.1178 9.72227 21.0977C9.72364 21.0921 9.72526 21.086 9.72715 21.0794C9.73981 21.0351 9.76223 20.9766 9.79847 20.9067C9.87199 20.765 9.98704 20.6057 10.1357 20.4571C10.4553 20.1375 10.7873 20 11 20H12V18H11Z" fill="black"/>
<path fill-rule="evenodd" clip-rule="evenodd" d="M35.9786 19.15C35.593 18.636 34.9052 18 34 18H33V20H33.987C33.9972 20.0032 34.0262 20.014 34.0748 20.0463C34.1616 20.1042 34.27 20.2052 34.3786 20.35C34.6102 20.6588 34.7105 20.9821 34.7142 21.1343C34.7119 21.1437 34.6994 21.193 34.6418 21.2955C34.5595 21.4418 34.4413 21.6021 34.2714 21.8286L34.2554 21.85C34.1057 22.0494 33.9111 22.3088 33.7579 22.5812C33.599 22.8636 33.4286 23.2542 33.4286 23.7143C33.4286 24.4499 33.9692 24.901 34.2304 25.0969C34.4772 25.282 34.7927 25.463 35.0489 25.61C35.0597 25.6161 35.0703 25.6222 35.0808 25.6283C35.1264 25.6544 35.1699 25.6794 35.2104 25.7031C35.532 25.8906 35.7567 26.0386 35.9011 26.179C35.9665 26.2426 35.9916 26.2812 36.0001 26.2983C36.001 26.3731 35.9973 26.4306 35.5429 26.7714L35.4906 26.8104C35.09 27.1081 34.2857 27.706 34.2857 28.8571C34.2857 29.837 34.7849 30.5004 35.0954 30.913L35.1286 30.9571C35.4649 31.4055 35.5714 31.587 35.5714 31.8571C35.5714 32.0734 35.433 32.3525 35.0859 32.6328C34.9243 32.7633 34.7503 32.8651 34.6008 32.9311C34.497 32.9769 34.4349 32.9925 34.4143 32.9977L34.4086 32.9992C34.4072 32.9996 34.4066 32.9998 34.4066 33H33.4286V35H34.4286C34.7725 35 35.126 34.8854 35.4081 34.7609C35.714 34.6259 36.0399 34.4331 36.3426 34.1887C36.9242 33.7189 37.5714 32.9266 37.5714 31.8571C37.5714 30.8773 37.0722 30.2139 36.7618 29.8013L36.7286 29.7571C36.3923 29.3088 36.2857 29.1272 36.2857 28.8571L36.2856 28.8467C36.2847 28.7708 36.284 28.7155 36.7429 28.3714L36.7952 28.3324C37.1957 28.0347 38 27.4368 38 26.2857C38 25.5941 37.644 25.0841 37.2953 24.7451C36.9576 24.4167 36.5395 24.1629 36.2182 23.9755C36.1343 23.9266 36.0572 23.8822 35.986 23.8412C35.7859 23.7259 35.6325 23.6376 35.5068 23.5515C35.5889 23.4079 35.7055 23.2498 35.8714 23.0286L35.8875 23.0072C36.0371 22.8077 36.2318 22.5483 36.385 22.276C36.5438 21.9936 36.7143 21.603 36.7143 21.1429C36.7143 20.434 36.3853 19.6924 35.9786 19.15ZM35.3317 23.4112C35.3311 23.4112 35.3348 23.416 35.3446 23.4257C35.3373 23.4161 35.3324 23.4113 35.3317 23.4112ZM36.0039 26.3087C36.0041 26.3088 36.0041 26.308 36.0035 26.3063L36.0028 26.3042L36.0013 26.3007C36.0023 26.306 36.0035 26.3087 36.0039 26.3087Z" fill="black"/>
<path fill-rule="evenodd" clip-rule="evenodd" d="M36 8.5C36 7.11929 37.1193 6 38.5 6C39.8807 6 41 7.11929 41 8.5V13.0505C41.6186 13.6818 42 14.5463 42 15.5C42 17.433 40.433 19 38.5 19C36.567 19 35 17.433 35 15.5C35 14.5463 35.3814 13.6818 36 13.0505V8.5ZM38 13.8671L37.4285 14.4503C37.1614 14.7229 37 15.0906 37 15.5C37 16.3284 37.6716 17 38.5 17C39.3284 17 40 16.3284 40 15.5C40 15.0906 39.8386 14.7229 39.5715 14.4503L39 13.8671V12H38V13.8671ZM38.5 8C38.7761 8 39 8.22386 39 8.5V10H38V8.5C38 8.22386 38.2239 8 38.5 8Z" fill="black"/>
</svg>

<svg
  xmlns="http://www.w3.org/2000/svg"
  width="24"
  height="24"
  viewBox="0 0 24 24"
  fill="none"
  stroke="currentColor"
  stroke-width="2"
  stroke-linecap="round"
  stroke-linejoin="round"
>
  <path d="M26.5 10.5a4.5 4.5 0 1 1-9 0 4.5 4.5 0 0 1 9 0" />
  <path d="M14.167 17.35A2 2 0 0 1 16 16h12a2 2 0 0 1 1.833 1.35l2.059 6a2 2 0 0 1-.577 2.158l-.131.043c-.396.133-.952.377-1.517.625l-.147.065c-.48.21-.986.43-1.483.628l-.037.014a19 19 0 0 1-.467.177c-.672.245-1.214.389-1.578.41l-.074.003c-.205-.663-.35-1.393-.265-2.028.045-.335.15-.619.326-.855.174-.233.454-.471.93-.662l.928-.37-.743-1.858-.928.372c-.775.31-1.37.759-1.79 1.323a3.8 3.8 0 0 0-.705 1.785c-.157 1.172.156 2.352.417 3.136.16.48.502.813.918.99.374.16.773.181 1.107.161.6-.036 1.282-.226 1.924-.45V40a2 2 0 0 1-3.988.22l-1-9A2 2 0 0 1 23 31h-2a2 2 0 0 1-.012.22l-1 9A2 2 0 0 1 16 40V29.007c.778.233 1.589.425 2.277.46.365.02.782 0 1.165-.142.417-.154.827-.47 1.007-1.009.294-.883.455-2.088.142-3.261-.326-1.223-1.158-2.359-2.72-2.983l-.928-.372-.743 1.857.929.372c.938.375 1.356.989 1.53 1.641.166.623.114 1.32-.043 1.9a2 2 0 0 1-.237 0c-.48-.024-1.164-.18-1.96-.426a24 24 0 0 1-.419-.133v-.029l-2.7-1.009a2 2 0 0 1-1.192-2.522z" />
  <path d="M11 18c-.93 0-1.741.505-2.279 1.043-.52.52-1.007 1.295-1.007 2.1 0 .54.264.971.468 1.243s.462.53.66.728l.022.022c.15.15.271.272.367.38-.174.085-.38.174-.624.28h-.003l-.29.127c-.424.186-.947.425-1.367.731-.4.292-.947.82-.947 1.632 0 .67.317 1.159.673 1.493.305.285.683.498.942.643l.038.021c.312.176.483.278.592.38q.031.03.04.044c-.003.16-.087.307-.564.783l-.058.058c-.388.385-1.092 1.083-1.092 2.15 0 1.168.857 1.966 1.55 2.4.717.45 1.613.742 2.308.742h1v-2h-1c-.235 0-.767-.136-1.246-.437-.504-.316-.612-.59-.612-.706 0-.164.079-.307.565-.793l.058-.057c.388-.386 1.092-1.084 1.092-2.15 0-.67-.317-1.159-.673-1.493-.305-.285-.684-.498-.942-.643l-.038-.021c-.304-.171-.473-.273-.583-.372q.03-.025.075-.058c.222-.162.557-.325.99-.515l.228-.098c.342-.147.732-.316 1.04-.488a2.7 2.7 0 0 0 .615-.453c.193-.199.43-.536.43-1.002 0-.54-.264-.97-.467-1.243a7 7 0 0 0-.66-.727l-.023-.023a6 6 0 0 1-.496-.535 1 1 0 0 1-.06-.088l.005-.019a1 1 0 0 1 .071-.172c.074-.142.189-.301.338-.45.32-.32.651-.457.864-.457h1v-2z" />
  <path
    fill-rule="evenodd"
    d="M35.979 19.15C35.593 18.636 34.905 18 34 18h-1v2h.987c.01.003.04.014.088.046.087.058.195.16.304.304.231.309.332.632.335.784a.7.7 0 0 1-.072.162c-.083.146-.2.306-.37.533l-.017.021c-.15.2-.344.459-.497.731-.159.283-.33.673-.33 1.133 0 .736.541 1.187.802 1.383.247.185.563.366.819.513l.032.018.13.075c.321.188.546.336.69.476.066.064.09.102.1.12 0 .074-.004.132-.458.472l-.052.04c-.401.297-1.205.895-1.205 2.046 0 .98.499 1.643.81 2.056l.033.044c.336.448.442.63.442.9 0 .216-.138.495-.485.776-.162.13-.336.232-.485.298-.104.046-.166.062-.187.067l-.005.001-.002.001h-.978v2h1c.343 0 .697-.115.98-.24.305-.134.63-.327.934-.571.581-.47 1.228-1.262 1.228-2.332 0-.98-.499-1.643-.81-2.056l-.032-.044c-.337-.448-.443-.63-.443-.9v-.01c-.001-.076-.002-.132.457-.476l.052-.039c.4-.297 1.205-.895 1.205-2.046 0-.692-.356-1.202-.705-1.54-.337-.33-.756-.583-1.077-.77l-.232-.135c-.2-.115-.353-.203-.48-.29a6 6 0 0 1 .365-.522l.017-.022c.15-.2.344-.459.497-.731.159-.282.33-.673.33-1.133 0-.709-.33-1.45-.736-1.993m-.647 4.261q-.001 0 .013.015zm.672 2.898v-.003l-.001-.002-.002-.003z"
    clip-rule="evenodd"
  />
  <path
    fill-rule="evenodd"
    d="M36 8.5a2.5 2.5 0 0 1 5 0v4.55a3.5 3.5 0 1 1-5 0zm2 5.367-.572.583a1.5 1.5 0 1 0 2.143 0L39 13.867V12h-1zM38.5 8a.5.5 0 0 1 .5.5V10h-1V8.5a.5.5 0 0 1 .5-.5"
    clip-rule="evenodd"
  />
</svg>
